!!!SOCIAL_FUNCTION:	bird dance songs
!!!PDT:	1956
!!!OTL: No_96_Black_Grass_Dance_Song_(a).krn
!!!LANG: Non-Tone
!!!LING_GROUP: Muskogean
!!!REG: Florida
**kern
*staff1
=1-
=
*clefF4
*k[b-e-a-]
*M3/4
(8.c\L
16G\Jk)
4B-\
4F\
=2
(8.B-\L
16G\Jk)
4F\
4C/
=3
8E-/L
16C/L
16C/JJ
4BB-/
4C/
=4
4C/
(8.G\L
16F\Jk)
4F\
=5
(8.B-\L
16G\Jk)
4F\
4C/
=6
8E-/L
16C/L
16C/JJ
4BB-/
8C/
8r
==:|!
*-
